symbols/web/markunread_mailbox/materialsymbolssharp/markunread_mailbox_wght700_24px.svg

<svg xmlns="http://www.w3.org/2000/svg" height="24" width="24"><path d="M6 14v-3.7H4.3v9.4h15.4v-9.4H10V7.15h12.85v15.7H1.15V7.15H6V.475h8.375V5.15H8V14Zm-1.7 0v-3.7 9.4-9.4V14Z"/></svg>

<svg xmlns="http://www.w3.org/2000/svg" height="24" width="24"><path d="M6 14V10.3H4.3V19.7H19.7V10.3H10V7.15H22.85V22.85H1.15V7.15H6V0.475H14.375V5.15H8V14ZM4.3 14V10.3V19.7V10.3V14Z"/></svg>
